!!!COM: Anon.
!!!OTL: Una Tarde de Verano [Paseo?]
!! Maria Cadilla de Martinez,
!! Juegos Y Canciones Infantiles de Puerto Rico
!! Talleres Graficos, Cas Baldrich, Brau 93, San Juan, P.R.
!! 1940.  Derechos reservados de la Autora
!! page 177
!! Allegro
**kern
*clefG2
*k[f#]
*M2/2
{4g
4b
=
2dd
4ee
8dd
8cc
=
4dd
4b},
{4g
4b
=
2dd
4ee
8dd
8cc
=
4dd
4b},
{4cc
4a
=
2f#
4b
8a
8g
=
4a
4g},
{4cc
4a
=
2g
4b
8a
8g
=
4a
4g}
==
*-
